X: 135
T: Si beag, si mhor
N: page 44
N: hexatonic
N: matches 1072
R: Waltz
C: Carolan
M: 3/4
L: 1/8
K: D
de \
| "D"f3e d2 | d3e d2 | "G"B4 A2 | "D"F4 A2 | "G"BA Bc d2 |\
 "A"e4 de | "D"f4 e2 | d4 f2 | "G"B4 e2 | "D"A4 d2 |
 F4 "A"E2 | "D"D4 f2 | "G"B4 e2 | "D"A4 dc |\
 "D"d2- "A"d4 | "D"d4 :: de |\
 "D"f3e d2 | ed ef a2 | "G"b4 a2 | "D"f4 ed |
 "A"e4 a2 | "D"f4 e2 | "G"d4 B2 | B4 BA |\
| "D"F4 "A"E2 | "D"D4 f2 | "G"B4 e2 | "D"A4 a2 |\
 "G"ba gf ed | "A"e4 dc | "G"d4 dc | "D"d6|d4 :|
